web/Alivewater/Alivewater/img/10/Second.svg

<svg width="84" height="110" viewBox="0 0 84 110" fill="none" xmlns="http://www.w3.org/2000/svg">
<path fill-rule="evenodd" clip-rule="evenodd" d="M0.895877 22.066C2.57564 20.128 4.6287 18.666 7.12968 17.748C13.2515 15.47 21.1651 17 27.4735 18.02C35.4618 19.312 43.1514 20.366 51.2143 18.904C55.507 18.122 59.9117 17.85 64.0178 16.524L65.9962 15.878L83.9137 50.116L81.0768 50.728C72.0434 52.632 63.8685 54.094 54.6484 52.598C41.0237 50.354 31.4677 51.51 17.6562 53.652L15.9018 53.924L0 23.12L0.895877 22.066ZM2.72496 23.392C12.3556 12.308 30.6091 24.786 51.6622 21.012C55.9549 20.23 60.4343 19.958 64.8017 18.564L80.5542 48.688C47.0335 55.76 61.9274 44.676 17.2829 51.578L2.72496 23.392Z" fill="#273453"/>
<path d="M5.4126 31.314L43.3754 18.734" stroke="#273453" stroke-width="2" stroke-miterlimit="87.6578"/>
<path d="M70.6249 28.832L41.7702 19.244" stroke="#273453" stroke-width="2" stroke-miterlimit="87.6578"/>
<path d="M8.69745 36.856L65.8469 17.918" stroke="#273453" stroke-width="2" stroke-miterlimit="87.6578"/>
<path d="M75.7015 37.128L22.9195 18.938" stroke="#273453" stroke-width="2" stroke-miterlimit="87.6578"/>
<path d="M10.9745 42.704L68.6465 23.596" stroke="#273453" stroke-width="2" stroke-miterlimit="87.6578"/>
<path d="M80.2929 45.186L5.15125 20.196" stroke="#273453" stroke-width="2" stroke-miterlimit="87.6578"/>
<path d="M14.11 48.28L71.6701 29.206" stroke="#273453" stroke-width="2" stroke-miterlimit="87.6578"/>
<path d="M77.1574 50.558L2.68768 26.146" stroke="#273453" stroke-width="2" stroke-miterlimit="87.6578"/>
<path d="M30.5345 50.252L75.0297 34.68" stroke="#273453" stroke-width="2" stroke-miterlimit="87.6578"/>
<path d="M63.3832 52.054L7.01764 34.204" stroke="#273453" stroke-width="2" stroke-miterlimit="87.6578"/>
<path d="M47.2948 50.49L77.4186 40.494" stroke="#273453" stroke-width="2" stroke-miterlimit="87.6578"/>
<path d="M35.1632 50.286L10.9372 42.126" stroke="#273453" stroke-width="2" stroke-miterlimit="87.6578"/>
<path d="M2.87427 26.214L24.6739 18.972" stroke="#273453" stroke-width="2" stroke-miterlimit="87.6578"/>
<path d="M69.0822 23.4607L56.2162 19.176" stroke="#273453" stroke-width="2" stroke-miterlimit="87.6578"/>
<path fill-rule="evenodd" clip-rule="evenodd" d="M52.894 19.822L52.67 19.006C52.1847 17.306 50.6916 14.824 49.6464 13.09C48.5639 11.322 46.4735 8.398 45.9136 7.446C43.8605 4.148 42.9647 1.598 42.2181 0.374C42.0688 0.102 42.0688 0.136 41.9195 0C40.725 4.25 36.9548 9.112 34.7898 12.478C32.2141 16.456 29.0412 21.386 32.0275 26.826C37.5521 36.924 55.3203 32.742 52.894 19.822Z" fill="#2669B9"/>
<path fill-rule="evenodd" clip-rule="evenodd" d="M41.6582 6.18801C41.0236 9.62201 38.9333 12.92 37.7761 16.218C35.835 21.658 38.1867 23.494 36.8802 24.854C35.3498 26.418 32.2142 24.412 33.782 19.312C34.5659 16.83 37.4401 12.988 39.0452 10.608C39.9785 9.18001 40.837 7.37801 41.6582 6.18801Z" fill="white"/>
<path d="M24.6738 75.0098C24.6738 75.8457 24.5332 76.5762 24.252 77.2012C23.9707 77.8223 23.5723 78.2969 23.0566 78.625C22.541 78.9531 21.9395 79.1172 21.252 79.1172C20.5801 79.1172 19.9844 78.9531 19.4648 78.625C18.9453 78.293 18.541 77.8223 18.252 77.2129C17.9668 76.5996 17.8203 75.8906 17.8125 75.0859V74.4707C17.8125 73.6504 17.9551 72.9258 18.2402 72.2969C18.5254 71.668 18.9277 71.1875 19.4473 70.8555C19.9707 70.5195 20.5684 70.3516 21.2402 70.3516C21.9238 70.3516 22.5254 70.5176 23.0449 70.8496C23.5684 71.1777 23.9707 71.6562 24.252 72.2852C24.5332 72.9102 24.6738 73.6387 24.6738 74.4707V75.0098ZM23.5547 74.459C23.5547 73.4473 23.3516 72.6719 22.9453 72.1328C22.5391 71.5898 21.9707 71.3184 21.2402 71.3184C20.5293 71.3184 19.9688 71.5898 19.5586 72.1328C19.1523 72.6719 18.9434 73.4219 18.9316 74.3828V75.0098C18.9316 75.9902 19.1367 76.7617 19.5469 77.3242C19.9609 77.8828 20.5293 78.1621 21.252 78.1621C21.9785 78.1621 22.541 77.8984 22.9395 77.3711C23.3379 76.8398 23.543 76.0801 23.5547 75.0918V74.459ZM30.9785 79H29.8887V76.7031C29.4121 76.8281 28.9238 76.8906 28.4238 76.8906C27.6309 76.8906 27.0254 76.6875 26.6074 76.2812C26.1934 75.875 25.9824 75.2969 25.9746 74.5469V72.6543H27.0586V74.582C27.0781 75.5273 27.5332 76 28.4238 76C28.9238 76 29.4121 75.9375 29.8887 75.8125V72.6602H30.9785V79ZM36.8203 72.6602H37.9043V79H36.8203V74.377L33.8965 79H32.8125V72.6602H33.8965V77.2891L36.8203 72.6602ZM42.1875 78.2324C42.5742 78.2324 42.9121 78.1152 43.2012 77.8809C43.4902 77.6465 43.6504 77.3535 43.6816 77.002H44.707C44.6875 77.3652 44.5625 77.7109 44.332 78.0391C44.1016 78.3672 43.793 78.6289 43.4062 78.8242C43.0234 79.0195 42.6172 79.1172 42.1875 79.1172C41.3242 79.1172 40.6367 78.8301 40.125 78.2559C39.6172 77.6777 39.3633 76.8887 39.3633 75.8887V75.707C39.3633 75.0898 39.4766 74.541 39.7031 74.0605C39.9297 73.5801 40.2539 73.207 40.6758 72.9414C41.1016 72.6758 41.6035 72.543 42.1816 72.543C42.8926 72.543 43.4824 72.7559 43.9512 73.1816C44.4238 73.6074 44.6758 74.1602 44.707 74.8398H43.6816C43.6504 74.4297 43.4941 74.0938 43.2129 73.832C42.9355 73.5664 42.5918 73.4336 42.1816 73.4336C41.6309 73.4336 41.2031 73.6328 40.8984 74.0312C40.5977 74.4258 40.4473 74.998 40.4473 75.748V75.9531C40.4473 76.6836 40.5977 77.2461 40.8984 77.6406C41.1992 78.0352 41.6289 78.2324 42.1875 78.2324ZM50.6367 73.5391H48.5098V79H47.4258V73.5391H45.3398V72.6602H50.6367V73.5391ZM53.666 76.2988H52.875V79H51.7852V72.6602H52.875V75.3438H53.584L55.7168 72.6602H57.0293L54.5215 75.707L57.2402 79H55.8633L53.666 76.2988ZM62.0859 79C62.0234 78.875 61.9727 78.6523 61.9336 78.332C61.4297 78.8555 60.8281 79.1172 60.1289 79.1172C59.5039 79.1172 58.9902 78.9414 58.5879 78.5898C58.1895 78.2344 57.9902 77.7852 57.9902 77.2422C57.9902 76.582 58.2402 76.0703 58.7402 75.707C59.2441 75.3398 59.9512 75.1562 60.8613 75.1562H61.916V74.6582C61.916 74.2793 61.8027 73.9785 61.5762 73.7559C61.3496 73.5293 61.0156 73.416 60.5742 73.416C60.1875 73.416 59.8633 73.5137 59.6016 73.709C59.3398 73.9043 59.209 74.1406 59.209 74.418H58.1191C58.1191 74.1016 58.2305 73.7969 58.4531 73.5039C58.6797 73.207 58.9844 72.9727 59.3672 72.8008C59.7539 72.6289 60.1777 72.543 60.6387 72.543C61.3691 72.543 61.9414 72.7266 62.3555 73.0938C62.7695 73.457 62.9844 73.959 63 74.5996V77.5176C63 78.0996 63.0742 78.5625 63.2227 78.9062V79H62.0859ZM60.2871 78.1738C60.627 78.1738 60.9492 78.0859 61.2539 77.9102C61.5586 77.7344 61.7793 77.5059 61.916 77.2246V75.9238H61.0664C59.7383 75.9238 59.0742 76.3125 59.0742 77.0898C59.0742 77.4297 59.1875 77.6953 59.4141 77.8867C59.6406 78.0781 59.9316 78.1738 60.2871 78.1738ZM15.416 91.4121L16.8926 86.6602H18.0527L15.5039 93.9785C15.1094 95.0332 14.4824 95.5605 13.623 95.5605L13.418 95.543L13.0137 95.4668V94.5879L13.3066 94.6113C13.6738 94.6113 13.959 94.5371 14.1621 94.3887C14.3691 94.2402 14.5391 93.9688 14.6719 93.5742L14.9121 92.9297L12.6504 86.6602H13.834L15.416 91.4121ZM23.1211 87.5566H20.1973V93H19.1074V86.6602H23.1211V87.5566ZM23.6602 89.7715C23.6602 89.1504 23.7812 88.5918 24.0234 88.0957C24.2695 87.5996 24.6094 87.2168 25.043 86.9473C25.4805 86.6777 25.9785 86.543 26.5371 86.543C27.4004 86.543 28.0977 86.8418 28.6289 87.4395C29.1641 88.0371 29.4316 88.832 29.4316 89.8242V89.9004C29.4316 90.5176 29.3125 91.0723 29.0742 91.5645C28.8398 92.0527 28.502 92.4336 28.0605 92.707C27.623 92.9805 27.1191 93.1172 26.5488 93.1172C25.6895 93.1172 24.9922 92.8184 24.457 92.2207C23.9258 91.623 23.6602 90.832 23.6602 89.8477V89.7715ZM24.75 89.9004C24.75 90.6035 24.9121 91.168 25.2363 91.5938C25.5645 92.0195 26.002 92.2324 26.5488 92.2324C27.0996 92.2324 27.5371 92.0176 27.8613 91.5879C28.1855 91.1543 28.3477 90.5488 28.3477 89.7715C28.3477 89.0762 28.1816 88.5137 27.8496 88.084C27.5215 87.6504 27.084 87.4336 26.5371 87.4336C26.002 87.4336 25.5703 87.6465 25.2422 88.0723C24.9141 88.498 24.75 89.1074 24.75 89.9004ZM35.8945 86.6602V93H34.8047V87.5566H32.6484L32.5195 89.9297C32.4492 91.0195 32.2656 91.7988 31.9688 92.2676C31.6758 92.7363 31.209 92.9805 30.5684 93H30.1348V92.0449L30.4453 92.0215C30.7969 91.9824 31.0488 91.7793 31.2012 91.4121C31.3535 91.0449 31.4512 90.3652 31.4941 89.373L31.6113 86.6602H35.8945ZM38.8184 88.8457H40.4648C41.1836 88.8535 41.752 89.041 42.1699 89.4082C42.5879 89.7754 42.7969 90.2734 42.7969 90.9023C42.7969 91.5352 42.582 92.043 42.1523 92.4258C41.7227 92.8086 41.1445 93 40.418 93H37.7344V86.6602H38.8184V88.8457ZM38.8184 89.7305V92.1152H40.4297C40.8359 92.1152 41.1504 92.0117 41.373 91.8047C41.5957 91.5938 41.707 91.3066 41.707 90.9434C41.707 90.5918 41.5977 90.3047 41.3789 90.082C41.1641 89.8555 40.8613 89.7383 40.4707 89.7305H38.8184ZM49.3301 93H48.2461V90.293H45.334V93H44.2441V86.6602H45.334V89.4082H48.2461V86.6602H49.3301V93ZM52.2598 88.8457H53.9062C54.625 88.8535 55.1934 89.041 55.6113 89.4082C56.0293 89.7754 56.2383 90.2734 56.2383 90.9023C56.2383 91.5352 56.0234 92.043 55.5938 92.4258C55.1641 92.8086 54.5859 93 53.8594 93H51.1758V86.6602H52.2598V88.8457ZM58.5 93H57.4102V86.6602H58.5V93ZM52.2598 89.7305V92.1152H53.8711C54.2773 92.1152 54.5918 92.0117 54.8145 91.8047C55.0371 91.5938 55.1484 91.3066 55.1484 90.9434C55.1484 90.5918 55.0391 90.3047 54.8203 90.082C54.6055 89.8555 54.3027 89.7383 53.9121 89.7305H52.2598ZM64.043 91.5645L66.1992 86.6602H67.5527V93H66.4688V88.3887L64.418 93H63.668L61.5762 88.2891V93H60.4922V86.6602H61.8984L64.043 91.5645ZM12.6211 103.947C12.6211 102.889 12.8262 102.057 13.2363 101.451C13.6465 100.846 14.209 100.543 14.9238 100.543C15.2559 100.543 15.5469 100.6 15.7969 100.713V98H16.8809V100.748C17.1543 100.611 17.4746 100.543 17.8418 100.543C18.5605 100.543 19.125 100.846 19.5352 101.451C19.9453 102.057 20.1504 102.93 20.1504 104.07C20.1504 105.004 19.9453 105.746 19.5352 106.297C19.1289 106.848 18.5684 107.123 17.8535 107.123C17.4746 107.123 17.1504 107.061 16.8809 106.936V109.438H15.7969V106.953C15.5391 107.066 15.2441 107.123 14.9121 107.123C14.2012 107.123 13.6406 106.848 13.2305 106.297C12.8242 105.746 12.6211 104.992 12.6211 104.035V103.947ZM19.0664 103.947C19.0664 103.15 18.9297 102.533 18.6562 102.096C18.3828 101.654 18.0059 101.434 17.5254 101.434C17.2793 101.434 17.0645 101.473 16.8809 101.551V106.139C17.0566 106.205 17.2754 106.238 17.5371 106.238C18.0215 106.238 18.3965 106.051 18.6621 105.676C18.9316 105.301 19.0664 104.725 19.0664 103.947ZM13.7051 104.07C13.7051 104.781 13.832 105.32 14.0859 105.688C14.3398 106.055 14.7051 106.238 15.1816 106.238C15.4082 106.238 15.6133 106.203 15.7969 106.133V101.533C15.6328 101.467 15.4316 101.434 15.1934 101.434C14.7168 101.434 14.3496 101.646 14.0918 102.072C13.834 102.498 13.7051 103.164 13.7051 104.07ZM25.6641 100.66H26.748V107H25.6641V102.377L22.7402 107H21.6562V100.66H22.7402V105.289L25.6641 100.66ZM33.6855 100.66V107H32.5957V101.557H30.4395L30.3105 103.93C30.2402 105.02 30.0566 105.799 29.7598 106.268C29.4668 106.736 29 106.98 28.3594 107H27.9258V106.045L28.2363 106.021C28.5879 105.982 28.8398 105.779 28.9922 105.412C29.1445 105.045 29.2422 104.365 29.2852 103.373L29.4023 100.66H33.6855ZM36.6094 102.846H38.2559C38.9746 102.854 39.543 103.041 39.9609 103.408C40.3789 103.775 40.5879 104.273 40.5879 104.902C40.5879 105.535 40.373 106.043 39.9434 106.426C39.5137 106.809 38.9355 107 38.209 107H35.5254V100.66H36.6094V102.846ZM36.6094 103.73V106.115H38.2207C38.627 106.115 38.9414 106.012 39.1641 105.805C39.3867 105.594 39.498 105.307 39.498 104.943C39.498 104.592 39.3887 104.305 39.1699 104.082C38.9551 103.855 38.6523 103.738 38.2617 103.73H36.6094ZM46.2422 101.539H44.1152V107H43.0312V101.539H40.9453V100.66H46.2422V101.539ZM52.6523 103.9C52.6523 104.865 52.4316 105.643 51.9902 106.232C51.5488 106.822 50.9512 107.117 50.1973 107.117C49.4277 107.117 48.8223 106.873 48.3809 106.385V109.438H47.2969V100.66H48.2871L48.3398 101.363C48.7812 100.816 49.3945 100.543 50.1797 100.543C50.9414 100.543 51.543 100.83 51.9844 101.404C52.4297 101.979 52.6523 102.777 52.6523 103.801V103.9ZM51.5684 103.777C51.5684 103.062 51.416 102.498 51.1113 102.084C50.8066 101.67 50.3887 101.463 49.8574 101.463C49.2012 101.463 48.709 101.754 48.3809 102.336V105.365C48.7051 105.943 49.2012 106.232 49.8691 106.232C50.3887 106.232 50.8008 106.027 51.1055 105.617C51.4141 105.203 51.5684 104.59 51.5684 103.777ZM53.748 103.771C53.748 103.15 53.8691 102.592 54.1113 102.096C54.3574 101.6 54.6973 101.217 55.1309 100.947C55.5684 100.678 56.0664 100.543 56.625 100.543C57.4883 100.543 58.1855 100.842 58.7168 101.439C59.252 102.037 59.5195 102.832 59.5195 103.824V103.9C59.5195 104.518 59.4004 105.072 59.1621 105.564C58.9277 106.053 58.5898 106.434 58.1484 106.707C57.7109 106.98 57.207 107.117 56.6367 107.117C55.7773 107.117 55.0801 106.818 54.5449 106.221C54.0137 105.623 53.748 104.832 53.748 103.848V103.771ZM54.8379 103.9C54.8379 104.604 55 105.168 55.3242 105.594C55.6523 106.02 56.0898 106.232 56.6367 106.232C57.1875 106.232 57.625 106.018 57.9492 105.588C58.2734 105.154 58.4355 104.549 58.4355 103.771C58.4355 103.076 58.2695 102.514 57.9375 102.084C57.6094 101.65 57.1719 101.434 56.625 101.434C56.0898 101.434 55.6582 101.646 55.3301 102.072C55.002 102.498 54.8379 103.107 54.8379 103.9ZM64.5293 105.564L66.6855 100.66H68.0391V107H66.9551V102.389L64.9043 107H64.1543L62.0625 102.289V107H60.9785V100.66H62.3848L64.5293 105.564Z" fill="#273453"/>
</svg>

<svg width="84" height="110" fill="none" xmlns="http://www.w3.org/2000/svg"><path fill-rule="evenodd" clip-rule="evenodd" d="M.896 22.066c1.68-1.938 3.733-3.4 6.234-4.318 6.122-2.278 14.035-.748 20.344.272 7.988 1.292 15.677 2.346 23.74.884 4.293-.782 8.698-1.054 12.804-2.38l1.978-.646 17.918 34.238-2.837.612c-9.034 1.904-17.209 3.366-26.429 1.87-13.624-2.244-23.18-1.088-36.992 1.054l-1.754.272L0 23.12l.896-1.054zm1.829 1.326c9.63-11.084 27.884 1.394 48.937-2.38 4.293-.782 8.772-1.054 13.14-2.448l15.752 30.124c-33.52 7.072-18.627-4.012-63.271 2.89L2.725 23.392z" fill="#273453"/><path d="M5.413 31.314l37.962-12.58m27.25 10.098L41.77 19.244M8.697 36.856l57.15-18.938m9.854 19.21L22.92 18.938M10.975 42.704l57.672-19.108m11.646 21.59L5.15 20.196m8.96 28.084l57.56-19.074m5.487 21.352L2.687 26.146m27.848 24.106L75.03 34.68M63.383 52.054L7.018 34.204M47.295 50.49l30.124-9.996m-42.256 9.792l-24.226-8.16M2.874 26.214l21.8-7.242m44.408 4.488l-12.866-4.284" stroke="#273453" stroke-width="2" stroke-miterlimit="87.658"/><path fill-rule="evenodd" clip-rule="evenodd" d="M52.894 19.822l-.224-.816c-.485-1.7-1.978-4.182-3.024-5.916-1.082-1.768-3.172-4.692-3.732-5.644-2.053-3.298-2.95-5.848-3.696-7.072-.15-.272-.15-.238-.299-.374-1.194 4.25-4.964 9.112-7.13 12.478-2.575 3.978-5.748 8.908-2.761 14.348 5.524 10.098 23.292 5.916 20.866-7.004z" fill="#2669B9"/><path fill-rule="evenodd" clip-rule="evenodd" d="M41.658 6.188c-.634 3.434-2.725 6.732-3.882 10.03-1.941 5.44.41 7.276-.896 8.636-1.53 1.564-4.666-.442-3.098-5.542.784-2.482 3.658-6.324 5.263-8.704.933-1.428 1.792-3.23 2.613-4.42z" fill="#fff"/><path d="M24.674 75.01c0 .836-.14 1.566-.422 2.191-.281.621-.68 1.096-1.195 1.424-.516.328-1.117.492-1.805.492-.672 0-1.268-.164-1.787-.492-.52-.332-.924-.803-1.213-1.412-.285-.613-.432-1.322-.44-2.127v-.615c0-.82.143-1.545.428-2.174.285-.629.688-1.11 1.207-1.441.524-.337 1.121-.504 1.793-.504.684 0 1.285.166 1.805.498.523.328.926.806 1.207 1.435.281.625.422 1.354.422 2.186v.539zm-1.12-.551c0-1.012-.202-1.787-.609-2.326-.406-.543-.974-.815-1.705-.815-.71 0-1.271.272-1.681.815-.407.539-.616 1.289-.627 2.25v.627c0 .98.205 1.752.615 2.314.414.559.982.838 1.705.838.727 0 1.289-.264 1.688-.79.398-.532.603-1.292.615-2.28v-.633zM30.98 79h-1.09v-2.297a5.75 5.75 0 01-1.465.188c-.793 0-1.399-.204-1.817-.61-.414-.406-.625-.984-.632-1.734v-1.893h1.084v1.928c.02.945.474 1.418 1.365 1.418.5 0 .988-.063 1.465-.188V72.66h1.09V79zm5.841-6.34h1.084V79H36.82v-4.623L33.897 79h-1.084v-6.34h1.084v4.63l2.923-4.63zm5.367 5.572c.387 0 .725-.117 1.014-.351.29-.234.45-.528.48-.879h1.026c-.02.363-.145.709-.375 1.037-.23.328-.539.59-.926.785a2.645 2.645 0 01-1.218.293c-.864 0-1.551-.287-2.063-.861-.508-.578-.762-1.367-.762-2.367v-.182c0-.617.114-1.166.34-1.646.227-.48.55-.854.973-1.12.426-.265.927-.398 1.506-.398.71 0 1.3.213 1.77.639.472.425.724.978.755 1.658h-1.025a1.477 1.477 0 00-.47-1.008 1.433 1.433 0 00-1.03-.398c-.551 0-.979.199-1.284.597-.3.395-.45.967-.45 1.717v.205c0 .73.15 1.293.45 1.688.301.394.73.591 1.29.591zm8.45-4.693H48.51V79h-1.084v-5.46H45.34v-.88h5.297v.88zm3.029 2.76h-.791V79h-1.09v-6.34h1.09v2.684h.709l2.133-2.684h1.312l-2.508 3.047L57.242 79h-1.378l-2.197-2.701zM62.086 79c-.063-.125-.113-.348-.152-.668-.504.524-1.106.785-1.805.785-.625 0-1.139-.176-1.541-.527a1.728 1.728 0 01-.598-1.348c0-.66.25-1.172.75-1.535.504-.367 1.211-.55 2.121-.55h1.055v-.499c0-.379-.113-.68-.34-.902-.226-.227-.56-.34-1.002-.34-.386 0-.71.098-.972.293-.262.195-.393.432-.393.709h-1.09c0-.316.111-.621.334-.914.227-.297.531-.531.914-.703.387-.172.81-.258 1.272-.258.73 0 1.302.184 1.716.55.415.364.63.866.645 1.507v2.918c0 .582.074 1.044.223 1.388V79h-1.137zm-1.799-.826c.34 0 .662-.088.967-.264.305-.176.525-.404.662-.685v-1.301h-.85c-1.328 0-1.992.388-1.992 1.166 0 .34.114.605.34.797.227.191.518.287.873.287zM15.416 91.412l1.477-4.752h1.16l-2.55 7.319c-.394 1.054-1.02 1.582-1.88 1.582l-.205-.018-.404-.076v-.88l.293.024c.367 0 .652-.074.855-.222.207-.149.377-.42.51-.815l.24-.644-2.262-6.27h1.184l1.582 4.752zm7.705-3.855h-2.924V93h-1.09v-6.34h4.014v.897zm.54 2.215c0-.622.12-1.18.362-1.676a2.758 2.758 0 011.02-1.149 2.79 2.79 0 011.494-.404c.863 0 1.56.299 2.092.896.535.598.803 1.393.803 2.385v.076a3.77 3.77 0 01-.358 1.664 2.67 2.67 0 01-1.014 1.143c-.437.274-.94.41-1.511.41-.86 0-1.557-.299-2.092-.896-.531-.598-.797-1.389-.797-2.373v-.076zm1.089.128c0 .703.162 1.268.486 1.694.328.425.766.638 1.313.638.55 0 .988-.214 1.312-.644.325-.434.487-1.04.487-1.816 0-.696-.166-1.258-.498-1.688a1.564 1.564 0 00-1.313-.65c-.535 0-.967.213-1.295.638-.328.426-.492 1.035-.492 1.828zm11.145-3.24V93h-1.09v-5.443h-2.157l-.129 2.373c-.07 1.09-.253 1.869-.55 2.338-.293.468-.76.713-1.4.732h-.434v-.955l.31-.023c.352-.04.604-.243.756-.61.152-.367.25-1.047.293-2.039l.117-2.713h4.284zm2.923 2.186h1.647c.719.007 1.287.195 1.705.562.418.367.627.865.627 1.494 0 .633-.215 1.141-.645 1.524-.43.383-1.008.574-1.734.574h-2.684v-6.34h1.084v2.186zm0 .885v2.384h1.612c.406 0 .72-.103.943-.31.223-.211.334-.498.334-.862 0-.351-.11-.638-.328-.861-.215-.226-.518-.344-.908-.351h-1.653zM49.33 93h-1.084v-2.707h-2.912V93h-1.09v-6.34h1.09v2.748h2.912V86.66h1.084V93zm2.93-4.154h1.646c.719.007 1.287.195 1.705.562.418.367.627.865.627 1.494 0 .633-.215 1.141-.644 1.524-.43.383-1.008.574-1.735.574h-2.683v-6.34h1.084v2.186zM58.5 93h-1.09v-6.34h1.09V93zm-6.24-3.27v2.385h1.611c.406 0 .72-.103.944-.31.222-.211.333-.498.333-.862 0-.351-.109-.638-.328-.861-.215-.226-.517-.344-.908-.351H52.26zm11.783 1.834l2.156-4.904h1.354V93h-1.084v-4.611L64.418 93h-.75l-2.092-4.71V93h-1.084v-6.34h1.406l2.145 4.904zm-51.422 12.383c0-1.058.205-1.89.615-2.496.41-.605.973-.908 1.688-.908.332 0 .623.057.873.17V98h1.084v2.748a2.12 2.12 0 01.96-.205c.72 0 1.284.303 1.694.908.41.606.615 1.479.615 2.619 0 .934-.205 1.676-.615 2.227-.406.551-.967.826-1.681.826-.38 0-.704-.062-.973-.187v2.502h-1.084v-2.485c-.258.113-.553.17-.885.17-.71 0-1.271-.275-1.682-.826-.406-.551-.609-1.305-.609-2.262v-.088zm6.445 0c0-.797-.136-1.414-.41-1.851-.273-.442-.65-.662-1.13-.662-.247 0-.462.039-.645.117v4.588c.176.066.394.099.656.099.485 0 .86-.187 1.125-.562.27-.375.404-.951.404-1.729zm-5.36.123c0 .711.126 1.25.38 1.618.254.367.62.55 1.096.55.226 0 .431-.035.615-.105v-4.6a1.622 1.622 0 00-.604-.099c-.476 0-.843.212-1.101.638-.258.426-.387 1.092-.387 1.998zm11.958-3.41h1.084V107h-1.084v-4.623L22.74 107h-1.084v-6.34h1.084v4.629l2.924-4.629zm8.021 0V107h-1.09v-5.443H30.44l-.13 2.373c-.07 1.09-.253 1.869-.55 2.338-.293.468-.76.712-1.4.732h-.434v-.955l.31-.024c.352-.039.604-.242.756-.609.152-.367.25-1.047.293-2.039l.117-2.713h4.283zm2.924 2.186h1.647c.719.008 1.287.195 1.705.562.418.367.627.865.627 1.494 0 .633-.215 1.141-.645 1.524-.43.383-1.008.574-1.734.574h-2.684v-6.34h1.084v2.186zm0 .884v2.385h1.612c.406 0 .72-.103.943-.31.223-.211.334-.498.334-.862 0-.351-.11-.638-.328-.861-.215-.227-.518-.344-.908-.352h-1.653zm9.633-2.191h-2.127V107h-1.084v-5.461h-2.086v-.879h5.297v.879zm6.41 2.361c0 .965-.22 1.743-.662 2.332-.441.59-1.039.885-1.793.885-.77 0-1.375-.244-1.816-.732v3.053h-1.084v-8.778h.99l.053.703c.441-.547 1.054-.82 1.84-.82.761 0 1.363.287 1.804.861.446.575.668 1.373.668 2.397v.099zm-1.084-.123c0-.715-.152-1.279-.457-1.693-.304-.414-.722-.621-1.254-.621-.656 0-1.148.291-1.476.873v3.029c.324.578.82.867 1.488.867.52 0 .932-.205 1.236-.615.31-.414.463-1.027.463-1.84zm2.18-.006c0-.621.121-1.179.363-1.675a2.763 2.763 0 011.02-1.149 2.795 2.795 0 011.494-.404c.863 0 1.56.299 2.092.896.535.598.803 1.393.803 2.385v.076a3.77 3.77 0 01-.358 1.664c-.234.489-.572.87-1.014 1.143-.437.273-.941.41-1.511.41-.86 0-1.557-.299-2.092-.896-.531-.598-.797-1.389-.797-2.373v-.077zm1.09.129c0 .704.162 1.268.486 1.694.328.426.766.638 1.313.638.55 0 .988-.214 1.312-.644.324-.434.486-1.039.486-1.817 0-.695-.166-1.257-.498-1.687a1.562 1.562 0 00-1.312-.65c-.535 0-.967.212-1.295.638-.328.426-.492 1.035-.492 1.828zm9.691 1.664l2.157-4.904h1.353V107h-1.084v-4.611L64.905 107h-.75l-2.093-4.711V107h-1.084v-6.34h1.407l2.144 4.904z" fill="#273453"/></svg>
